X: 5
T: The Grumbling Old Man And Woman
R: reel
M: 4/4
L: 1/8
K: Ador
CA,EA, CA,EA,|B,G,DG, B,G,DG,|CA,EA, CA,EA,|1 B,A,G,B, A,2A,B,:|2 B,A,G,B, A,2z2 :||
e2ed ^cdef|g2gf ed^cd|efed ^cded|eaa^g a2ef|
=gfed ^cdef|g2ge dBGB|=c2Bc AGEF|GEDB, A,2A,B, :||

